X: 1
T: London, The
M: 4/4
L: 1/8
R: hornpipe
K: Dmaj
(3ABc|: (3ddd A>F (3DDD F>A|d2 f>d (3eee g>e|
f>dc>d B>cd>e|f>dg>e d>cB>A|
d2 A>F (3DDD F>A|d2 f>d (3eee g>e|
f>dc<d A>dc>e|1f>dd>c d2 (3ABc:|2f>dd>c d2 d>e||
|:f>dB<d A>dB>d|G>dF>d E>FD>F|
G>FG>A B>cd>e|f>dg>e d>cB>A|
B>eg>e A>df>d|G>Bd>G F>Ad>A|
g>fe>d A>Dc>e|1f>dd>c d2 d>e:|2f>dd>c d2 (3ABc||
